public/art/nature/pebbles.svg

<svg xmlns="http://www.w3.org/2000/svg" width="32" height="32" shape-rendering="crispEdges" viewBox="0 -0.5 16 16"><path stroke="#161b26" d="M3 2h4M2 3h1m4 0h1M1 4h1m6 0h1M1 5h1m6 0h1m1 4h3m-4 1h1m3 0h1m-5 1h1m3 0h1"/><path stroke="#dfe0e8" d="M3 3h1m0 1h2m4 6h1"/><path stroke="#a3a7c2" d="M4 3h3m4 7h2"/><path stroke="#686f99" d="M2 4h2m2 0h2M3 5h4m3 6h3"/><path stroke="#404973" d="M2 5h1m4 0h1M3 6h4m3 6h3"/></svg>

<svg xmlns="http://www.w3.org/2000/svg" width="32" height="32" viewBox="0 -0.5 16 16" shape-rendering="crispEdges">
<path stroke="#161b26" d="M3 2h4M2 3h1M7 3h1M1 4h1M8 4h1M1 5h1M8 5h1M10 9h3M9 10h1M13 10h1M9 11h1M13 11h1" />
<path stroke="#dfe0e8" d="M3 3h1M4 4h2M10 10h1" />
<path stroke="#a3a7c2" d="M4 3h3M11 10h2" />
<path stroke="#686f99" d="M2 4h2M6 4h2M3 5h4M10 11h3" />
<path stroke="#404973" d="M2 5h1M7 5h1M3 6h4M10 12h3" />
</svg>
